X:1
T:Plaetscherpolka
C:traditionell
R:volkstanz
A:Schwaebische Tuerkei
%%textfont Helvetica-Narrow 10pt
%%begintext align
B:Deutsche Volkstaenze, Heft 44/45 - Deutsche Volkstaenze aus dem Donauraum", Herausgegeben von Karl Horak, Baerenreiter=Ausgabe 1277, 1961
H:gelernt von Elisabeth und Christoph Huspeka
N:im buch ganz in G
%%endtext
F:http://simonwascher.info/
Z:abc transcription Simon Wascher
M:2/4
L:1/8
K:G
D |\
GG GG | GA BG | AA AA | AB cA |
BA2F | G3 :|
|: z |\
d2 G2 | FA2B | c2 F2 | GB2c |
d2 G2 | FA2B | cB A2 | G3 :|
%%wordsfont Times-Italic 11pt
W:aus Simon Waschers TradArchiv
